X:1
T:Mr. Jamieson's
T:Mr. Jamieson's
T:Alexander Walker
C:Alexander Walker
L:1/8
M:2/2
K:Emin
V:1 treble 
V:1
 F | E2 EF EDB,C | D2 DE FEDF | E2 EF GABc | dBAF E/E/EE :| d | e^def g2 fe | dDAF DEFd | %8
 DB,EF GABc | dBAF E/E/E Ed | e^def g2 fe | dDAF DEFf | gage fafd | BdAF E/E/EE || %14

